; HEADER_BLOCK_START
; generated by OrcaSlicer 2.3.1 on 2026-01-28 at 12:20:56
; total layer number: 235
; filament_density: 1.25
; filament_diameter: 1.75
; max_z_height: 47.00
; HEADER_BLOCK_END

; THUMBNAIL_BLOCK_START

;
; THUMBNAIL_BLOCK_END

; external perimeters extrusion width = 0.42mm
; perimeters extrusion width = 0.45mm
; infill extrusion width = 0.45mm
; solid infill extrusion width = 0.42mm
; top infill extrusion width = 0.42mm
; first layer extrusion width = 0.50mm

; EXECUTABLE_BLOCK_START
EXCLUDE_OBJECT_DEFINE NAME=Multi-sensor_ESP32_Enclosure.stl_id_0_copy_0 CENTER=128.5,128.5 POLYGON=[[85,82.3],[85.1,80.824],[85.398,79.544],[85.895,78.461],[86.591,77.575],[87.487,76.886],[88.581,76.394],[89.874,76.099],[91.366,76],[165.634,76],[167.126,76.099],[168.419,76.394],[169.513,76.886],[170.409,77.575],[171.105,78.461],[171.602,79.544],[171.9,80.824],[172,82.3],[172,174.7],[171.9,176.176],[171.602,177.456],[171.105,178.539],[170.409,179.425],[170.003,179.737],[169.513,180.114],[168.419,180.606],[167.126,180.901],[165.634,181],[91.366,181],[89.874,180.901],[88.581,180.606],[87.487,180.114],[86.591,179.425],[85.895,178.539],[85.398,177.456],[85.1,176.176],[85,174.7],[85,82.3]]
M106 S0
M106 P2 S0
;TYPE:Custom
;;===== date: 20240520 =====================
;printer_model:Elegoo Centauri Carbon
;initial_filament:PLA
;curr_bed_type:Textured PEI Plate
M400 ; wait for buffer to clear
M220 S100 ;Set the feed speed to 100%
M221 S100 ;Set the flow rate to 100%
M104 S140
M140 S60
G90
G28 ;home
M729 ;Clean Nozzle
M106 P2 S255
M190 S60
M106 P2 S0


;=============turn on fans to prevent PLA jamming=================

    
    M106 P3 S255
    ;Prevent PLA from jamming


;enable_pressure_advance:false
;This value is called if pressure advance is enabled

M204 S5000 ;Call exterior wall print acceleration


G1 X128.5 Y-1.2 F20000
G1 Z0.3 F900
M109 S210
M83
G92 E0 ;Reset Extruder
G1 F6000 
G1 X-1.2 E10.156 ;Draw the first line
G1 Y98.8 E7.934
G1 X-0.5 Y100 E0.1
G1 Y-0.3 E7.934
G1 X78.5 E6.284
G1 F1680 
G1 X98.5 E2
G1 F8400 
G1 X118.5 E2
G1 F1680 
G1 X138.5 E2
G1 F8400 
G1 X158.5 E2
G1 F8400 
G1 X178.5 E2
;End PA test.


G3 I-1 J0 Z0.6 F1200.0 ;Move to side a little
G1 F20000
G92 E0 ;Reset Extruder
SET_PRINT_STATS_INFO TOTAL_LAYER=235
;LAYER_COUNT:235
;LAYER:0
G90
G21
M83 ; use relative distances for extrusion
; filament start gcode
M106 P3 S200


M106 P2 S0
;LAYER_CHANGE
;Z:0.2
;HEIGHT:0.2
;BEFORE_LAYER_CHANGE
;0.2
G92 E0

G1 E-.8 F1800
SET_PRINT_STATS_INFO CURRENT_LAYER=1
;_SET_FAN_SPEED_CHANGING_LAYER
SET_VELOCITY_LIMIT ACCEL=500
EXCLUDE_OBJECT_START NAME=Multi-sensor_ESP32_Enclosure.stl_id_0_copy_0
G1 X83.268 Y74.642 F30000
G1 Z.6
G1 Z.2
G1 E.8 F1800
;TYPE:Brim
;WIDTH:0.5
G1 F3000
G1 X83.476 Y74.41 E.0116
G1 X83.889 Y74.049 E.02043
G1 X84.774 Y73.369 E.04157
G1 X85.217 Y73.069 E.01993
G1 X85.671 Y72.832 E.01908
G1 X86.749 Y72.347 E.04401
G1 X87.579 Y72.068 E.03262
G1 X88.871 Y71.771 E.04937
G1 X89.57 Y71.668 E.02631
G1 X91.061 Y71.568 E.05566
G1 X165.932 Y71.568 E2.78866
G1 X167.41 Y71.666 E.0552
G1 X168.103 Y71.767 E.02608
G1 X169.392 Y72.06 E.04923
G1 X170.226 Y72.338 E.03275
G1 X171.323 Y72.829 E.04474
G1 X171.783 Y73.069 E.01935
G1 X172.226 Y73.369 E.01993
G1 X173.111 Y74.049 E.04156
G1 X173.542 Y74.427 E.02134
G1 X173.907 Y74.836 E.02044
G1 X174.594 Y75.712 E.04145
G1 X174.89 Y76.137 E.01931
G1 X175.145 Y76.615 E.02017
G1 X175.635 Y77.681 E.04369
G1 X175.923 Y78.522 E.03314
G1 X176.223 Y79.801 E.04893
G1 X176.33 Y80.513 E.02679
G1 X176.442 Y82.3 E.06672
G1 X176.442 Y174.693 E3.44127
G1 X176.333 Y176.467 E.06621
G1 X176.228 Y177.172 E.02655
G1 X175.932 Y178.448 E.04878
G1 X175.644 Y179.294 E.03327
G1 X175.148 Y180.379 E.04445
G1 X174.902 Y180.843 E.01958
G1 X174.594 Y181.289 E.02017
G1 X173.907 Y182.163 E.04143
G1 X173.524 Y182.59 E.02135
G1 X173.111 Y182.951 E.02042
G1 X172.226 Y183.631 E.04157
G1 X171.783 Y183.931 E.01993
G1 X171.329 Y184.168 E.01908
G1 X170.251 Y184.653 E.04401
G1 X169.421 Y184.932 E.03262
G1 X168.129 Y185.229 E.04937
G1 X167.431 Y185.331 E.02629
G1 X165.634 Y185.442 E.06707
G1 X91.373 Y185.442 E2.76593
G1 X89.589 Y185.334 E.06657
G1 X88.897 Y185.233 E.02605
G1 X87.608 Y184.94 E.04923
G1 X86.774 Y184.662 E.03275
G1 X85.677 Y184.171 E.04474
G1 X85.217 Y183.931 E.01935
G1 X84.774 Y183.631 E.01993
G1 X83.889 Y182.951 E.04156
G1 X83.458 Y182.573 E.02134
G1 X83.093 Y182.164 E.02043
G1 X82.406 Y181.289 E.04144
G1 X82.098 Y180.843 E.02016
G1 X81.855 Y180.386 E.01931
G1 X81.365 Y179.319 E.04371
G1 X81.077 Y178.478 E.03314
G1 X80.777 Y177.199 E.04893
G1 X80.67 Y176.487 E.02679
G1 X80.558 Y174.7 E.06672
G1 X80.558 Y82.307 E3.44127
G1 X80.667 Y80.533 E.06621
G1 X80.772 Y79.828 E.02655
G1 X81.068 Y78.552 E.04878
G1 X81.356 Y77.706 E.03327
G1 X81.852 Y76.621 E.04445
G1 X82.098 Y76.157 E.01958
G1 X82.406 Y75.711 E.02016
G1 X83.093 Y74.837 E.04143
G1 X83.241 Y74.672 E.00826
G1 X83.581 Y74.978 F30000
G1 F3000
G1 X83.804 Y74.73 E.01238
G1 X84.182 Y74.4 E.0187
G1 X85.045 Y73.737 E.04052
G1 X85.445 Y73.466 E.018
G1 X85.874 Y73.242 E.01805
G1 X86.909 Y72.776 E.04228
G1 X87.71 Y72.507 E.03145
G1 X88.95 Y72.222 E.04741
G1 X89.613 Y72.124 E.02496
G1 X91.071 Y72.026 E.05444
G1 X165.921 Y72.025 E2.78786
G1 X167.357 Y72.12 E.0536
G1 X168.014 Y72.216 E.02474
G1 X169.262 Y72.499 E.04766
G1 X170.054 Y72.762 E.03107
G1 X171.12 Y73.239 E.0435
G1 X171.542 Y73.459 E.01772
G1 X171.962 Y73.742 E.01888
G1 X172.824 Y74.405 E.04051
G1 X173.213 Y74.746 E.01927
G1 X173.559 Y75.133 E.01933
G1 X174.229 Y75.987 E.04041
G1 X174.503 Y76.383 E.01797
G1 X174.738 Y76.822 E.01852
G1 X175.207 Y77.844 E.04191
G1 X175.481 Y78.643 E.03143
G1 X175.772 Y79.882 E.04743
G1 X175.875 Y80.567 E.02579
G1 X175.985 Y82.319 E.06538
G1 X175.985 Y174.675 E3.4399
G1 X175.877 Y176.425 E.06533
G1 X175.777 Y177.092 E.02512
G1 X175.494 Y178.316 E.04678
G1 X175.216 Y179.131 E.03207
G1 X174.74 Y180.173 E.04267
G1 X174.506 Y180.612 E.01853
G1 X174.228 Y181.014 E.0182
G1 X173.559 Y181.866 E.04034
G1 X173.196 Y182.27 E.02023
G1 X172.818 Y182.6 E.0187
G1 X171.955 Y183.263 E.04052
G1 X171.555 Y183.534 E.018
G1 X171.126 Y183.758 E.01805
G1 X170.091 Y184.224 E.04228
G1 X169.303 Y184.489 E.03094
G1 X168.05 Y184.778 E.04791
G1 X167.378 Y184.877 E.02531
G1 X165.615 Y184.985 E.06576
G1 X91.391 Y184.985 E2.76458
G1 X89.63 Y184.878 E.06571
G1 X88.975 Y184.782 E.02465
G1 X87.738 Y184.501 E.04726
G1 X86.934 Y184.233 E.03157
G1 X85.88 Y183.761 E.04299
G1 X85.445 Y183.533 E.01831
G1 X85.038 Y183.258 E.0183
G1 X84.183 Y182.6 E.04017
G1 X83.775 Y182.242 E.02022
G1 X83.441 Y181.867 E.01871
G1 X82.772 Y181.014 E.04038
G1 X82.494 Y180.612 E.01821
G1 X82.263 Y180.179 E.01827
G1 X81.793 Y179.156 E.04195
G1 X81.519 Y178.357 E.03143
G1 X81.228 Y177.118 E.04743
G1 X81.125 Y176.433 E.02579
G1 X81.015 Y174.681 E.06538
G1 X81.015 Y82.325 E3.4399
G1 X81.123 Y80.575 E.06533
G1 X81.223 Y79.908 E.02512
G1 X81.506 Y78.684 E.04678
G1 X81.784 Y77.869 E.03207
G1 X82.26 Y76.827 E.04267
G1 X82.494 Y76.388 E.01853
G1 X82.772 Y75.986 E.01819
G1 X83.441 Y75.134 E.04034
G1 X83.555 Y75.007 E.00636
G1 X83.895 Y75.314 F30000
G1 F3000
G1 X84.131 Y75.051 E.01317
G1 X84.475 Y74.751 E.01699
G1 X85.316 Y74.106 E.03948
G1 X85.687 Y73.856 E.01666
G1 X86.078 Y73.651 E.01645
G1 X87.07 Y73.205 E.04053
G1 X87.841 Y72.946 E.03027
G1 X89.03 Y72.673 E.04544
G1 X89.657 Y72.58 E.02361
G1 X91.082 Y72.483 E.05322
G1 X165.91 Y72.483 E2.78707
G1 X167.304 Y72.575 E.05201
G1 X167.925 Y72.665 E.0234
G1 X169.133 Y72.938 E.0461
G1 X169.881 Y73.187 E.02938
G1 X170.917 Y73.649 E.04225
G1 X171.301 Y73.848 E.01611
G1 X171.698 Y74.116 E.01783
G1 X172.537 Y74.761 E.03943
G1 X172.896 Y75.078 E.01783
G1 X173.211 Y75.431 E.01761
G1 X173.863 Y76.261 E.03934
G1 X174.116 Y76.629 E.01661
G1 X174.33 Y77.029 E.0169
G1 X174.779 Y78.008 E.04014
G1 X175.039 Y78.763 E.02973
G1 X175.322 Y79.963 E.04593
G1 X175.421 Y80.621 E.02479
G1 X175.528 Y82.338 E.06405
G1 X175.528 Y174.656 E3.43852
G1 X175.421 Y176.383 E.06444
G1 X175.327 Y177.012 E.02369
G1 X175.055 Y178.183 E.04479
G1 X174.788 Y178.968 E.03087
G1 X174.332 Y179.966 E.04088
G1 X174.119 Y180.367 E.01689
G1 X173.862 Y180.739 E.01684
G1 X173.212 Y181.568 E.03924
G1 X172.869 Y181.949 E.01911
G1 X172.525 Y182.249 E.01699
G1 X171.684 Y182.894 E.03948
G1 X171.313 Y183.144 E.01666
G1 X170.922 Y183.349 E.01645
G1 X169.93 Y183.795 E.04054
G1 X169.185 Y184.047 E.02927
G1 X167.97 Y184.327 E.04643
G1 X167.324 Y184.422 E.02432
G1 X165.597 Y184.528 E.06445
G1 X91.409 Y184.528 E2.76323
G1 X89.671 Y184.422 E.06484
G1 X89.054 Y184.331 E.02325
G1 X87.868 Y184.062 E.0453
G1 X87.094 Y183.804 E.03039
G1 X86.083 Y183.351 E.04123
G1 X85.686 Y183.144 E.01669
G1 X85.302 Y182.885 E.01726
G1 X84.477 Y182.25 E.03877
G1 X84.093 Y181.911 E.0191
G1 X83.789 Y181.57 E.01699
G1 X83.137 Y180.739 E.03933
G1 X82.881 Y180.366 E.01685
G1 X82.671 Y179.972 E.01664
G1 X82.221 Y178.992 E.04018
G1 X81.961 Y178.237 E.02973
G1 X81.678 Y177.037 E.04593
G1 X81.579 Y176.379 E.02479
G1 X81.472 Y174.662 E.06405
G1 X81.472 Y82.344 E3.43852
G1 X81.579 Y80.617 E.06444
G1 X81.673 Y79.988 E.02369
G1 X81.945 Y78.817 E.04479
G1 X82.212 Y78.032 E.03087
G1 X82.668 Y77.034 E.04088
G1 X82.881 Y76.633 E.0169
G1 X83.137 Y76.261 E.01683
G1 X83.788 Y75.432 E.03924
G1 X83.868 Y75.343 E.00445
G1 X84.207 Y75.65 F30000
G1 F3000
G1 X84.459 Y75.372 E.01396
G1 X84.768 Y75.103 E.01529
G1 X85.586 Y74.474 E.03842
G1 X85.928 Y74.246 E.0153
G1 X86.281 Y74.061 E.01486
G1 X87.231 Y73.634 E.03878
G1 X87.971 Y73.385 E.02909
G1 X89.109 Y73.124 E.04349
G1 X89.7 Y73.035 E.02225
G1 X91.093 Y72.94 E.05199
G1 X165.9 Y72.94 E2.78627
G1 X167.251 Y73.03 E.05042
G1 X167.837 Y73.114 E.02206
G1 X169.003 Y73.377 E.04455
G1 X169.709 Y73.611 E.0277
G1 X170.715 Y74.059 E.041
G1 X171.06 Y74.239 E.0145
G1 X171.434 Y74.489 E.01677
G1 X172.249 Y75.117 E.03833
G1 X172.579 Y75.409 E.01638
G1 X172.863 Y75.728 E.01591
G1 X173.497 Y76.536 E.03826
G1 X173.729 Y76.874 E.01525
G1 X173.922 Y77.236 E.01529
G1 X174.351 Y78.172 E.03838
G1 X174.597 Y78.884 E.02803
G1 X174.871 Y80.044 E.04442
G1 X174.966 Y80.675 E.02378
G1 X175.071 Y82.356 E.06272
G1 X175.071 Y174.638 E3.43715
G1 X174.965 Y176.341 E.06355
G1 X174.876 Y176.932 E.02225
G1 X174.616 Y178.051 E.0428
G1 X174.36 Y178.805 E.02967
G1 X173.923 Y179.76 E.0391
G1 X173.731 Y180.122 E.01527
G1 X173.496 Y180.465 E.01546
G1 X172.865 Y181.27 E.03811
G1 X172.541 Y181.628 E.01798
G1 X172.232 Y181.897 E.01528
G1 X171.414 Y182.526 E.03842
G1 X171.072 Y182.754 E.0153
G1 X170.719 Y182.939 E.01486
G1 X169.768 Y183.366 E.03881
G1 X169.067 Y183.604 E.02759
G1 X167.891 Y183.876 E.04495
G1 X167.271 Y183.967 E.02333
G1 X165.579 Y184.071 E.06315
G1 X91.427 Y184.071 E2.76188
G1 X89.713 Y183.966 E.06397
G1 X89.133 Y183.881 E.02184
G1 X87.998 Y183.623 E.04335
G1 X87.254 Y183.374 E.02921
G1 X86.287 Y182.941 E.03947
G1 X85.914 Y182.746 E.01565
G1 X85.567 Y182.511 E.01564
G1 X84.772 Y181.9 E.03734
G1 X84.41 Y181.58 E.01798
G1 X84.138 Y181.273 E.01529
G1 X83.503 Y180.465 E.03827
G1 X83.269 Y180.122 E.01548
G1 X83.079 Y179.765 E.01504
G1 X82.649 Y178.828 E.03843
G1 X82.403 Y178.116 E.02803
G1 X82.129 Y176.956 E.04442
G1 X82.034 Y176.325 E.02378
G1 X81.929 Y174.644 E.06272
G1 X81.929 Y82.362 E3.43715
G1 X82.035 Y80.659 E.06355
G1 X82.124 Y80.068 E.02225
G1 X82.384 Y78.949 E.0428
G1 X82.64 Y78.195 E.02967
G1 X83.077 Y77.24 E.0391
G1 X83.269 Y76.878 E.01528
G1 X83.503 Y76.535 E.01545
G1 X84.135 Y75.73 E.03811
G1 X84.18 Y75.68 E.00253
G1 X84.519 Y75.987 F30000
G1 F3000
G1 X84.786 Y75.694 E.01476
G1 X85.061 Y75.454 E.0136
G1 X85.85 Y74.849 E.03703
G1 X86.155 Y74.643 E.01371
G1 X86.485 Y74.471 E.01386
G1 X87.392 Y74.063 E.03705
G1 X88.102 Y73.824 E.02792
G1 X89.189 Y73.574 E.04154
G1 X89.744 Y73.491 E.0209
G1 X91.104 Y73.398 E.05076
G1 X165.889 Y73.397 E2.78547
G1 X167.198 Y73.484 E.04884
G1 X167.748 Y73.563 E.02072
G1 X168.874 Y73.817 E.04299
G1 X169.537 Y74.036 E.02601
G1 X170.513 Y74.47 E.03975
G1 X170.833 Y74.637 E.01347
G1 X171.171 Y74.863 E.01513
G1 X171.962 Y75.473 E.0372
G1 X172.261 Y75.739 E.01492
G1 X172.515 Y76.025 E.01423
G1 X173.131 Y76.81 E.03718
G1 X173.341 Y77.118 E.01387
G1 X173.514 Y77.443 E.0137
G1 X173.924 Y78.337 E.03664
G1 X174.156 Y79.005 E.02633
G1 X174.421 Y80.125 E.0429
G1 X174.512 Y80.73 E.02276
G1 X174.614 Y82.374 E.06138
G1 X174.614 Y174.619 E3.43577
G1 X174.509 Y176.298 E.06266
G1 X174.425 Y176.851 E.02082
G1 X174.178 Y177.919 E.04083
G1 X173.932 Y178.642 E.02847
G1 X173.515 Y179.554 E.03733
G1 X173.335 Y179.891 E.01425
G1 X173.125 Y180.198 E.01384
G1 X172.518 Y180.971 E.03662
G1 X172.214 Y181.307 E.01685
G1 X171.939 Y181.546 E.01359
G1 X171.15 Y182.151 E.03704
G1 X170.845 Y182.357 E.01371
G1 X170.515 Y182.529 E.01386
G1 X169.607 Y182.938 E.0371
G1 X168.948 Y183.162 E.02592
G1 X167.811 Y183.425 E.04346
G1 X167.218 Y183.513 E.02234
G1 X165.561 Y183.614 E.06184
G1 X91.445 Y183.614 E2.76053
G1 X89.754 Y183.51 E.06309
G1 X89.212 Y183.43 E.02044
G1 X88.128 Y183.184 E.04141
G1 X87.414 Y182.945 E.02803
G1 X86.49 Y182.532 E.0377
G1 X86.156 Y182.357 E.01404
G1 X85.831 Y182.138 E.0146
G1 X85.059 Y181.544 E.03626
G1 X84.74 Y181.261 E.01589
G1 X84.486 Y180.977 E.01421
G1 X83.875 Y180.198 E.03688
G1 X83.664 Y179.891 E.01386
G1 X83.487 Y179.559 E.01402
G1 X83.076 Y178.663 E.0367
G1 X82.841 Y177.982 E.02684
G1 X82.577 Y176.864 E.04281
G1 X82.488 Y176.27 E.02234
G1 X82.386 Y174.626 E.06138
G1 X82.386 Y82.381 E3.43577
G1 X82.491 Y80.702 E.06266
G1 X82.575 Y80.149 E.02082
G1 X82.822 Y79.081 E.04083
G1 X83.068 Y78.358 E.02847
G1 X83.485 Y77.446 E.03733
G1 X83.665 Y77.108 E.01425
G1 X83.875 Y76.802 E.01383
G1 X84.482 Y76.029 E.03662
G1 X84.493 Y76.017 E.0006
G1 X84.869 Y76.316 F30000
G1 F3000
G1 X85.088 Y76.04 E.01309
G1 X85.291 Y75.858 E.01016
G1 X86.413 Y75.024 E.05209
G1 X86.635 Y74.905 E.00936
G1 X87.722 Y74.422 E.0443
G1 X89.392 Y74.002 E.06416
G1 X91.249 Y73.848 E.06938
G1 X165.777 Y73.849 E2.7759
G1 X167.316 Y73.956 E.05744
G1 X168.834 Y74.277 E.05782
G1 X170.34 Y74.894 E.06059
G1 X170.781 Y75.152 E.01904
G1 X171.87 Y75.999 E.0514
G1 X172.054 Y76.194 E.00997
G1 X172.77 Y77.089 E.0427
G1 X173.046 Y77.543 E.01979
G1 X173.718 Y79.124 E.064
G1 X174.055 Y80.722 E.0608
G1 X174.157 Y82.318 E.05957
G1 X174.157 Y174.682 E3.44022
G1 X174.055 Y176.278 E.05957
G1 X173.718 Y177.877 E.06088
G1 X173.091 Y179.379 E.06061
G1 X172.827 Y179.824 E.01928
G1 X171.97 Y180.902 E.05129
G1 X171.773 Y181.084 E.00998
G1 X170.867 Y181.793 E.04285
G1 X170.417 Y182.062 E.01954
G1 X168.831 Y182.723 E.064
G1 X167.226 Y183.056 E.06104
G1 X165.617 Y183.157 E.06007
G1 X91.383 Y183.157 E2.7649
G1 X89.774 Y183.056 E.06007
G1 X88.167 Y182.723 E.06111
G1 X86.66 Y182.106 E.06066
G1 X86.219 Y181.848 E.01904
G1 X85.13 Y181.001 E.0514
G1 X84.946 Y180.806 E.00997
G1 X84.23 Y179.911 E.0427
G1 X83.954 Y179.457 E.01979
G1 X83.282 Y177.876 E.064
G1 X82.945 Y176.278 E.0608
G1 X82.843 Y174.682 E.05957
G1 X82.851 Y82.122 E3.44752
G1 X83.007 Y80.326 E.06713
G1 X83.455 Y78.612 E.066
G1 X83.954 Y77.534 E.04423
G1 X84.077 Y77.314 E.00941
G1 X84.844 Y76.347 E.04596
G1 X85.197 Y76.626 F30000
G1 F3000
G1 X85.388 Y76.385 E.01148
G1 X85.561 Y76.227 E.00869
G1 X86.625 Y75.429 E.04956
G1 X86.815 Y75.325 E.00808
G1 X87.918 Y74.835 E.04493
G1 X89.512 Y74.443 E.06114
G1 X91.289 Y74.303 E.06641
G1 X165.741 Y74.304 E2.77302
G1 X167.293 Y74.413 E.05797
G1 X168.75 Y74.726 E.0555
G1 X170.172 Y75.319 E.05738
G1 X170.495 Y75.509 E.01397
G1 X171.534 Y76.308 E.04881
G1 X171.693 Y76.475 E.0086
G1 X172.418 Y77.381 E.04323
G1 X172.623 Y77.716 E.01462
G1 X173.268 Y79.208 E.06054
G1 X173.598 Y80.742 E.05843
G1 X173.7 Y82.313 E.05867
G1 X173.7 Y174.687 E3.44055
G1 X173.598 Y176.258 E.05867
G1 X173.268 Y177.793 E.05848
G1 X172.667 Y179.209 E.05727
G1 X172.473 Y179.535 E.01414
G1 X171.664 Y180.563 E.0487
G1 X171.496 Y180.721 E.0086
G1 X170.579 Y181.438 E.04338
G1 X170.246 Y181.638 E.01444
G1 X168.749 Y182.274 E.06059
G1 X167.207 Y182.599 E.0587
G1 X165.621 Y182.7 E.05919
G1 X91.379 Y182.7 E2.76522
G1 X89.793 Y182.599 E.05919
G1 X88.25 Y182.273 E.05875
G1 X86.828 Y181.681 E.05737
G1 X86.505 Y181.491 E.01397
G1 X85.466 Y180.692 E.04881
