; HEADER_BLOCK_START
; generated by OrcaSlicer 2.3.1 on 2026-01-28 at 11:44:34
; total layer number: 56
; filament_density: 1.25
; filament_diameter: 1.75
; max_z_height: 11.20
; HEADER_BLOCK_END

; THUMBNAIL_BLOCK_START

;
; THUMBNAIL_BLOCK_END

; external perimeters extrusion width = 0.42mm
; perimeters extrusion width = 0.45mm
; infill extrusion width = 0.45mm
; solid infill extrusion width = 0.42mm
; top infill extrusion width = 0.42mm
; first layer extrusion width = 0.50mm

; EXECUTABLE_BLOCK_START
EXCLUDE_OBJECT_DEFINE NAME=new_lid2stl.stl_id_0_copy_0 CENTER=128.5,128.5 POLYGON=[[87,179.429],[87.09,82.62],[87.195,80.776],[87.51,79.177],[88.035,77.825],[88.769,76.717],[89.713,75.857],[90.867,75.242],[92.232,74.873],[93.805,74.75],[163.195,74.75],[164.768,74.873],[166.133,75.242],[167.287,75.857],[168.231,76.717],[168.965,77.825],[169.49,79.177],[169.805,80.776],[169.91,82.62],[170,179.429],[170,182.25],[87,182.25],[87,179.429]]
M106 S0
M106 P2 S0
;TYPE:Custom
;;===== date: 20240520 =====================
;printer_model:Elegoo Centauri Carbon
;initial_filament:PLA
;curr_bed_type:Textured PEI Plate
M400 ; wait for buffer to clear
M220 S100 ;Set the feed speed to 100%
M221 S100 ;Set the flow rate to 100%
M104 S140
M140 S60
G90
G28 ;home
M729 ;Clean Nozzle
M106 P2 S255
M190 S60
M106 P2 S0


;=============turn on fans to prevent PLA jamming=================

    
    M106 P3 S255
    ;Prevent PLA from jamming


;enable_pressure_advance:false
;This value is called if pressure advance is enabled

M204 S5000 ;Call exterior wall print acceleration


G1 X128.5 Y-1.2 F20000
G1 Z0.3 F900
M109 S210
M83
G92 E0 ;Reset Extruder
G1 F6000 
G1 X-1.2 E10.156 ;Draw the first line
G1 Y98.8 E7.934
G1 X-0.5 Y100 E0.1
G1 Y-0.3 E7.934
G1 X78.5 E6.284
G1 F1680 
G1 X98.5 E2
G1 F8400 
G1 X118.5 E2
G1 F1680 
G1 X138.5 E2
G1 F8400 
G1 X158.5 E2
G1 F8400 
G1 X178.5 E2
;End PA test.


G3 I-1 J0 Z0.6 F1200.0 ;Move to side a little
G1 F20000
G92 E0 ;Reset Extruder
SET_PRINT_STATS_INFO TOTAL_LAYER=56
;LAYER_COUNT:56
;LAYER:0
G90
G21
M83 ; use relative distances for extrusion
; filament start gcode
M106 P3 S200


M106 P2 S0
;LAYER_CHANGE
;Z:0.2
;HEIGHT:0.2
;BEFORE_LAYER_CHANGE
;0.2
G92 E0

G1 E-.8 F1800
SET_PRINT_STATS_INFO CURRENT_LAYER=1
;_SET_FAN_SPEED_CHANGING_LAYER
SET_VELOCITY_LIMIT ACCEL=500
EXCLUDE_OBJECT_START NAME=new_lid2stl.stl_id_0_copy_0
G1 X125.653 Y113.279 F30000
G1 Z.6
G1 Z.2
G1 E.8 F1800
;TYPE:Inner wall
;WIDTH:0.5
G1 F3000
G1 X125.196 Y113.279 E.01702
G1 X125.196 Y86.644 E.99206
G1 X129.123 Y86.644 E.14627
G1 X129.123 Y113.279 E.99206
G1 X125.693 Y113.279 E.12776
G1 X125.653 Y112.822 F30000
;TYPE:Outer wall
G1 F3000
G1 X125.653 Y87.101 E.95801
G1 X128.666 Y87.101 E.11222
G1 X128.666 Y112.822 E.95801
G1 X125.693 Y112.822 E.11073
G1 E-.728 F1800
;WIPE_START
G1 F30000
G1 X125.691 Y111.622 E-.072
;WIPE_END
G1 X118.132 Y112.675 Z.6
G1 X117.074 Y112.822 Z.6
G1 Z.2
G1 E.8 F1800
;TYPE:Inner wall
G1 F3000
G1 X117.074 Y86.644 E.97503
G1 X121 Y86.644 E.14623
G1 X121 Y113.279 E.99206
G1 X117.074 Y113.279 E.14623
G1 X117.074 Y112.862 E.01553
G1 X117.531 Y112.822 F30000
;TYPE:Outer wall
G1 F3000
G1 X117.531 Y87.101 E.95801
G1 X120.543 Y87.101 E.11219
G1 X120.543 Y112.822 E.95801
G1 X117.571 Y112.822 E.1107
G1 E-.728 F1800
;WIPE_START
G1 F30000
G1 X117.569 Y111.622 E-.072
;WIPE_END
G1 X110.015 Y112.713 Z.6
G1 X109.259 Y112.822 Z.6
G1 Z.2
G1 E.8 F1800
;TYPE:Inner wall
G1 F3000
G1 X109.259 Y86.644 E.97503
G1 X113.186 Y86.644 E.14627
G1 X113.186 Y113.279 E.99206
G1 X109.259 Y113.279 E.14627
G1 X109.259 Y112.862 E.01553
G1 X109.716 Y112.822 F30000
;TYPE:Outer wall
G1 F3000
G1 X109.716 Y87.101 E.95801
G1 X112.729 Y87.101 E.11222
G1 X112.729 Y112.822 E.95801
G1 X109.756 Y112.822 E.11073
G1 E-.728 F1800
;WIPE_START
G1 F30000
G1 X109.754 Y111.622 E-.072
;WIPE_END
G1 X105.678 Y112.822 Z.6
G1 Z.2
G1 E.8 F1800
;TYPE:Inner wall
G1 F3000
G1 X105.678 Y113.279 E.01702
G1 X101.752 Y113.279 E.14623
G1 X101.752 Y86.644 E.99206
G1 X105.678 Y86.644 E.14623
G1 X105.678 Y112.782 E.97354
G1 X105.221 Y112.822 F30000
;TYPE:Outer wall
G1 F3000
G1 X102.209 Y112.822 E.11219
G1 X102.209 Y87.101 E.95801
G1 X105.221 Y87.101 E.11219
G1 X105.221 Y112.782 E.95652
G1 E-.728 F1800
;WIPE_START
G1 F30000
G1 X104.021 Y112.798 E-.072
;WIPE_END
G1 X111.654 Y112.804 Z.6
G1 X133.524 Y112.822 Z.6
G1 Z.2
G1 E.8 F1800
;TYPE:Inner wall
G1 F3000
G1 X133.524 Y86.644 E.97503
G1 X137.45 Y86.644 E.14623
G1 X137.45 Y113.279 E.99206
G1 X133.524 Y113.279 E.14623
G1 X133.524 Y112.862 E.01553
G1 X133.981 Y112.822 F30000
;TYPE:Outer wall
G1 F3000
G1 X133.981 Y87.101 E.95801
G1 X136.993 Y87.101 E.11219
G1 X136.993 Y112.822 E.95801
G1 X134.021 Y112.822 E.1107
G1 E-.728 F1800
;WIPE_START
G1 F30000
G1 X134.019 Y111.622 E-.072
;WIPE_END
G1 X136.396 Y104.369 Z.6
G1 X142.206 Y86.644 Z.6
G1 Z.2
G1 E.8 F1800
;TYPE:Inner wall
G1 F3000
G1 X145.675 Y86.644 E.12921
G1 X145.675 Y113.279 E.99206
G1 X141.749 Y113.279 E.14623
G1 X141.749 Y86.644 E.99206
G1 X142.166 Y86.644 E.01553
G1 X142.206 Y87.101 F30000
;TYPE:Outer wall
G1 F3000
G1 X145.218 Y87.101 E.11219
G1 X145.218 Y112.822 E.95801
G1 X142.206 Y112.822 E.11219
G1 X142.206 Y87.141 E.95652
G1 E-.728 F1800
;WIPE_START
G1 F30000
G1 X143.406 Y87.125 E-.072
;WIPE_END
G1 X145.412 Y94.489 Z.6
G1 X169.103 Y181.443 Z.6
G1 Z.2
G1 E.8 F1800
;TYPE:Inner wall
G1 F3000
G1 X87.897 Y181.443 E3.02461
G1 X87.897 Y82.643 E3.67992
G1 X87.998 Y80.877 E.06587
G1 X88.288 Y79.403 E.05598
G1 X88.756 Y78.198 E.04813
G1 X89.387 Y77.246 E.04253
G1 X90.182 Y76.522 E.04007
G1 X91.166 Y75.997 E.04153
G1 X92.37 Y75.672 E.04646
G1 X93.837 Y75.557 E.05479
G1 X163.198 Y75.56 E2.58344
G1 X164.63 Y75.672 E.05352
G1 X165.834 Y75.997 E.04646
G1 X166.818 Y76.522 E.04153
G1 X167.613 Y77.246 E.04007
G1 X168.244 Y78.198 E.04253
G1 X168.712 Y79.403 E.04813
G1 X169.002 Y80.877 E.05598
G1 X169.103 Y82.643 E.06587
G1 X169.103 Y181.403 E3.67843
G1 X169.56 Y181.9 F30000
;TYPE:Outer wall
G1 F3000
G1 X87.44 Y181.9 E3.05866
G1 X87.44 Y82.63 E3.69743
G1 X87.543 Y80.82 E.06752
G1 X87.847 Y79.275 E.05865
G1 X88.348 Y77.987 E.05147
G1 X89.037 Y76.946 E.04648
G1 X89.916 Y76.145 E.04431
G1 X90.997 Y75.57 E.0456
G1 X92.292 Y75.219 E.04997
G1 X93.819 Y75.1 E.05704
G1 X163.233 Y75.104 E2.58543
G1 X164.708 Y75.219 E.0551
G1 X166.003 Y75.57 E.04997
G1 X167.084 Y76.145 E.0456
G1 X167.963 Y76.946 E.04431
G1 X168.652 Y77.987 E.04648
G1 X169.153 Y79.275 E.05147
G1 X169.457 Y80.82 E.05865
G1 X169.56 Y82.63 E.06752
G1 X169.56 Y181.86 E3.69594
G1 E-.728 F1800
;WIPE_START
G1 F30000
G1 X168.36 Y181.861 E-.072
;WIPE_END
G1 X168.366 Y174.228 Z.6
G1 X168.441 Y79.337 Z.6
G1 Z.2
G1 E.8 F1800
;TYPE:Bottom surface
;WIDTH:0.500689
G1 F6300
G1 X165.446 Y76.342 E.15801
G1 X164.559 Y76.102 E.03428
G1 X168.37 Y79.913 E.20105
G1 X168.529 Y80.72 E.03065
G1 X163.856 Y76.047 E.24651
G1 X163.156 Y75.994 E.02619
G1 X168.599 Y81.438 E.28717
G1 X168.638 Y82.124 E.02565
G1 X162.508 Y75.994 E.32339
G1 X161.861 Y75.994 E.02415
G1 X168.669 Y82.802 E.35914
G1 X168.669 Y83.449 E.02415
G1 X161.213 Y75.994 E.39329
G1 X160.566 Y75.994 E.02415
G1 X168.669 Y84.096 E.42744
G1 X168.669 Y84.744 E.02415
G1 X159.919 Y75.994 E.4616
G1 X159.271 Y75.994 E.02415
G1 X168.669 Y85.391 E.49575
G1 X168.669 Y86.039 E.02415
G1 X158.624 Y75.994 E.5299
G1 X157.976 Y75.994 E.02415
G1 X168.669 Y86.686 E.56405
G1 X168.669 Y87.333 E.02415
G1 X157.329 Y75.994 E.59821
G1 X156.682 Y75.994 E.02415
G1 X168.669 Y87.981 E.63236
G1 X168.669 Y88.628 E.02415
G1 X156.034 Y75.994 E.66651
G1 X155.387 Y75.994 E.02415
G1 X168.669 Y89.276 E.70067
G1 X168.669 Y89.923 E.02415
G1 X154.739 Y75.994 E.73482
G1 X154.092 Y75.994 E.02415
G1 X168.669 Y90.57 E.76897
G1 X168.669 Y91.218 E.02415
G1 X153.445 Y75.994 E.80313
G1 X152.797 Y75.994 E.02415
G1 X168.669 Y91.865 E.83728
G1 X168.669 Y92.512 E.02415
G1 X152.15 Y75.994 E.87143
G1 X151.502 Y75.994 E.02415
G1 X168.669 Y93.16 E.90558
G1 X168.669 Y93.807 E.02415
G1 X150.855 Y75.993 E.93974
G1 X150.208 Y75.993 E.02415
G1 X168.669 Y94.455 E.97389
G1 X168.669 Y95.102 E.02415
G1 X149.56 Y75.993 E1.00804
G1 X148.913 Y75.993 E.02415
G1 X168.669 Y95.749 E1.0422
G1 X168.669 Y96.397 E.02415
G1 X148.265 Y75.993 E1.07635
G1 X147.618 Y75.993 E.02415
G1 X168.669 Y97.044 E1.1105
G1 X168.669 Y97.692 E.02415
G1 X146.971 Y75.993 E1.14466
G1 X146.323 Y75.993 E.02415
G1 X168.669 Y98.339 E1.17881
G1 X168.669 Y98.986 E.02415
G1 X145.676 Y75.993 E1.21296
G1 X145.028 Y75.993 E.02415
G1 X168.669 Y99.634 E1.24712
G1 X168.669 Y100.281 E.02415
G1 X144.381 Y75.993 E1.28127
G1 X143.733 Y75.993 E.02415
G1 X168.669 Y100.928 E1.31542
G1 X168.669 Y101.576 E.02415
G1 X143.086 Y75.993 E1.34957
G1 X142.439 Y75.993 E.02415
G1 X168.669 Y102.223 E1.38373
G1 X168.669 Y102.871 E.02415
G1 X141.791 Y75.993 E1.41788
G1 X141.144 Y75.993 E.02415
G1 X168.669 Y103.518 E1.45203
G1 X168.669 Y104.165 E.02415
G1 X140.496 Y75.993 E1.48619
G1 X139.849 Y75.993 E.02415
G1 X168.669 Y104.813 E1.52034
G1 X168.669 Y105.46 E.02415
G1 X139.202 Y75.993 E1.55449
G1 X138.554 Y75.993 E.02415
G1 X168.669 Y106.108 E1.58865
G1 X168.669 Y106.755 E.02415
G1 X137.907 Y75.993 E1.6228
G1 X137.259 Y75.993 E.02415
G1 X168.669 Y107.402 E1.65695
G1 X168.669 Y108.05 E.02415
G1 X136.612 Y75.993 E1.69111
G1 X135.965 Y75.993 E.02415
G1 X168.669 Y108.697 E1.72526
G1 X168.669 Y109.344 E.02415
G1 X146.109 Y86.785 E1.19009
G1 X146.109 Y86.21 E.02146
G1 X145.534 Y86.21 E.02146
G1 X135.317 Y75.993 E.53897
G1 X134.67 Y75.993 E.02415
G1 X144.887 Y86.21 E.53897
G1 X144.239 Y86.21 E.02415
G1 X134.022 Y75.993 E.53897
G1 X133.375 Y75.993 E.02415
G1 X143.592 Y86.21 E.53898
G1 X142.944 Y86.21 E.02415
G1 X132.728 Y75.993 E.53898
G1 X132.08 Y75.993 E.02415
G1 X142.297 Y86.21 E.53898
G1 X141.65 Y86.21 E.02415
G1 X131.433 Y75.993 E.53898
G1 X130.785 Y75.993 E.02415
G1 X141.315 Y86.522 E.55546
G1 X141.315 Y87.17 E.02415
G1 X130.138 Y75.993 E.58962
G1 X129.49 Y75.993 E.02415
G1 X141.315 Y87.817 E.62377
G1 X141.315 Y88.464 E.02415
G1 X128.843 Y75.993 E.65792
G1 X128.196 Y75.993 E.02415
G1 X141.315 Y89.112 E.69208
G1 X141.315 Y89.759 E.02415
G1 X127.548 Y75.993 E.72623
G1 X126.901 Y75.993 E.02415
G1 X137.118 Y86.21 E.53899
G1 X136.471 Y86.21 E.02415
G1 X126.253 Y75.993 E.53899
G1 X125.606 Y75.993 E.02415
G1 X135.823 Y86.21 E.53899
G1 X135.176 Y86.21 E.02415
G1 X124.959 Y75.993 E.53899
G1 X124.311 Y75.992 E.02415
G1 X134.528 Y86.21 E.53899
G1 X133.881 Y86.21 E.02415
G1 X123.664 Y75.992 E.539
G1 X123.016 Y75.992 E.02415
G1 X133.234 Y86.21 E.539
G1 X133.09 Y86.21 E.00537
G1 X133.09 Y86.713 E.01878
G1 X122.369 Y75.992 E.56555
G1 X121.722 Y75.992 E.02415
G1 X133.09 Y87.36 E.59971
G1 X133.09 Y88.008 E.02415
G1 X121.074 Y75.992 E.63386
G1 X120.427 Y75.992 E.02415
G1 X133.09 Y88.655 E.66801
G1 X133.09 Y89.303 E.02415
G1 X119.779 Y75.992 E.70217
G1 X119.132 Y75.992 E.02415
G1 X133.09 Y89.95 E.73632
G1 X133.09 Y90.597 E.02415
G1 X129.557 Y87.065 E.18635
G1 X129.557 Y87.712 E.02415
G1 X133.09 Y91.245 E.18635
G1 X133.09 Y91.892 E.02415
G1 X129.557 Y88.36 E.18635
G1 X129.557 Y89.007 E.02415
G1 X133.09 Y92.54 E.18635
G1 X133.09 Y93.187 E.02415
G1 X129.557 Y89.655 E.18635
G1 X129.557 Y90.302 E.02415
G1 X133.09 Y93.834 E.18635
G1 X133.09 Y94.482 E.02415
G1 X129.557 Y90.949 E.18635
G1 X129.557 Y91.597 E.02415
G1 X133.09 Y95.129 E.18635
G1 X133.09 Y95.776 E.02415
G1 X129.557 Y92.244 E.18635
G1 X129.557 Y92.891 E.02415
G1 X133.09 Y96.424 E.18635
G1 X133.09 Y97.071 E.02415
G1 X129.557 Y93.539 E.18635
G1 X129.557 Y94.186 E.02415
G1 X133.09 Y97.719 E.18635
G1 X133.09 Y98.366 E.02415
G1 X129.557 Y94.834 E.18635
G1 X129.557 Y95.481 E.02415
G1 X133.09 Y99.013 E.18635
G1 X133.09 Y99.661 E.02415
G1 X129.557 Y96.128 E.18635
G1 X129.557 Y96.776 E.02415
G1 X133.09 Y100.308 E.18635
G1 X133.09 Y100.956 E.02415
G1 X129.557 Y97.423 E.18635
G1 X129.557 Y98.071 E.02415
G1 X133.09 Y101.603 E.18635
G1 X133.09 Y102.25 E.02415
G1 X129.557 Y98.718 E.18635
G1 X129.557 Y99.365 E.02415
G1 X133.09 Y102.898 E.18635
G1 X133.09 Y103.545 E.02415
G1 X129.557 Y100.013 E.18635
G1 X129.557 Y100.66 E.02415
G1 X133.09 Y104.192 E.18635
G1 X133.09 Y104.84 E.02415
G1 X129.557 Y101.307 E.18635
G1 X129.557 Y101.955 E.02415
G1 X133.09 Y105.487 E.18635
G1 X133.09 Y106.135 E.02415
G1 X129.557 Y102.602 E.18635
G1 X129.557 Y103.25 E.02415
G1 X133.09 Y106.782 E.18635
G1 X133.09 Y107.429 E.02415
G1 X129.557 Y103.897 E.18635
G1 X129.557 Y104.544 E.02415
G1 X133.09 Y108.077 E.18635
G1 X133.09 Y108.724 E.02415
G1 X129.557 Y105.192 E.18635
G1 X129.557 Y105.839 E.02415
G1 X133.09 Y109.372 E.18635
G1 X133.09 Y110.019 E.02415
G1 X129.557 Y106.487 E.18635
G1 X129.557 Y107.134 E.02415
G1 X133.09 Y110.666 E.18635
G1 X133.09 Y111.314 E.02415
G1 X129.557 Y107.781 E.18635
G1 X129.557 Y108.429 E.02415
G1 X133.09 Y111.961 E.18635
G1 X133.09 Y112.608 E.02415
G1 X129.352 Y108.87 E.1972
G1 E-.728 F1800
;WIPE_START
G1 F30000
G1 X130.2 Y109.719 E-.072
;WIPE_END
G1 X134.091 Y103.152 Z.6
G1 X141.52 Y90.612 Z.6
G1 Z.2
G1 E.8 F1800
G1 F6300
G1 X137.884 Y86.976 E.19182
G1 X137.884 Y87.623 E.02415
G1 X141.315 Y91.054 E.18097
G1 X141.315 Y91.701 E.02415
G1 X137.884 Y88.271 E.18097
G1 X137.884 Y88.918 E.02415
G1 X141.315 Y92.349 E.18097
G1 X141.315 Y92.996 E.02415
G1 X137.884 Y89.566 E.18097
G1 X137.884 Y90.213 E.02415
G1 X141.315 Y93.643 E.18097
G1 X141.315 Y94.291 E.02415
G1 X137.884 Y90.86 E.18097
G1 X137.884 Y91.508 E.02415
G1 X141.315 Y94.938 E.18097
G1 X141.315 Y95.585 E.02415
G1 X137.884 Y92.155 E.18097
G1 X137.884 Y92.802 E.02415
G1 X141.315 Y96.233 E.18097
G1 X141.315 Y96.88 E.02415
G1 X137.884 Y93.45 E.18097
G1 X137.884 Y94.097 E.02415
G1 X141.315 Y97.528 E.18097
G1 X141.315 Y98.175 E.02415
G1 X137.884 Y94.745 E.18097
G1 X137.884 Y95.392 E.02415
G1 X141.315 Y98.822 E.18097
G1 X141.315 Y99.47 E.02415
G1 X137.884 Y96.039 E.18097
G1 X137.884 Y96.687 E.02415
G1 X141.315 Y100.117 E.18097
G1 X141.315 Y100.765 E.02415
G1 X137.884 Y97.334 E.18097
G1 X137.884 Y97.982 E.02415
G1 X141.315 Y101.412 E.18097
G1 X141.315 Y102.059 E.02415
G1 X137.884 Y98.629 E.18097
G1 X137.884 Y99.276 E.02415
G1 X141.315 Y102.707 E.18097
G1 X141.315 Y103.354 E.02415
G1 X137.884 Y99.924 E.18097
G1 X137.884 Y100.571 E.02415
G1 X141.315 Y104.001 E.18097
G1 X141.315 Y104.649 E.02415
G1 X137.884 Y101.218 E.18097
G1 X137.884 Y101.866 E.02415
G1 X141.315 Y105.296 E.18097
G1 X141.315 Y105.944 E.02415
G1 X137.884 Y102.513 E.18097
G1 X137.884 Y103.161 E.02415
G1 X141.315 Y106.591 E.18097
G1 X141.315 Y107.238 E.02415
G1 X137.884 Y103.808 E.18097
G1 X137.884 Y104.455 E.02415
G1 X141.315 Y107.886 E.18097
G1 X141.315 Y108.533 E.02415
G1 X137.884 Y105.103 E.18097
G1 X137.884 Y105.75 E.02415
G1 X141.315 Y109.181 E.18097
G1 X141.315 Y109.828 E.02415
G1 X137.884 Y106.398 E.18097
G1 X137.884 Y107.045 E.02415
G1 X141.315 Y110.475 E.18097
G1 X141.315 Y111.123 E.02415
G1 X137.884 Y107.692 E.18097
G1 X137.884 Y108.34 E.02415
G1 X141.315 Y111.77 E.18097
G1 X141.315 Y112.417 E.02415
G1 X137.884 Y108.987 E.18097
G1 X137.884 Y109.634 E.02415
G1 X141.52 Y113.271 E.19182
G1 E-.728 F1800
;WIPE_START
G1 F30000
G1 X140.672 Y112.422 E-.072
;WIPE_END
G1 X148.281 Y111.822 Z.6
G1 X168.874 Y110.198 Z.6
G1 Z.2
G1 E.8 F1800
G1 F6300
G1 X146.109 Y87.432 E1.20094
G1 X146.109 Y88.08 E.02415
G1 X168.669 Y110.639 E1.19009
G1 X168.669 Y111.287 E.02415
G1 X146.109 Y88.727 E1.19009
G1 X146.109 Y89.375 E.02415
G1 X168.669 Y111.934 E1.19009
G1 X168.669 Y112.581 E.02415
G1 X146.109 Y90.022 E1.19009
G1 X146.109 Y90.669 E.02415
G1 X168.669 Y113.229 E1.19009
G1 X168.669 Y113.876 E.02415
G1 X146.109 Y91.317 E1.19009
G1 X146.109 Y91.964 E.02415
G1 X168.669 Y114.524 E1.19009
G1 X168.669 Y115.171 E.02415
G1 X146.109 Y92.611 E1.19009
G1 X146.109 Y93.259 E.02415
G1 X168.669 Y115.818 E1.19009
G1 X168.669 Y116.466 E.02415
G1 X146.109 Y93.906 E1.19009
G1 X146.109 Y94.554 E.02415
G1 X168.669 Y117.113 E1.19009
G1 X168.669 Y117.76 E.02415
G1 X146.109 Y95.201 E1.19009
G1 X146.109 Y95.848 E.02415
G1 X168.669 Y118.408 E1.19009
G1 X168.669 Y119.055 E.02415
G1 X146.109 Y96.496 E1.19009
G1 X146.109 Y97.143 E.02415
G1 X168.669 Y119.703 E1.19009
G1 X168.669 Y120.35 E.02415
G1 X146.109 Y97.791 E1.19009
